X: 13
T:Rourke's Drift - Bledington
S:OY(AB)4
N:Tune as played for Grand Union Morris
N:www.grandunionmorris.co.uk
M:4/4
L:1/8
Q:100
K:G
"A"B2 BB A2 A2 |  GABG EF G2 | D2 GB d2 dd | d2 cB A2 GA | B2 BB A2 A2
 |  GABG EF G2 |  D2 GB d2 cB | A2 AA G4 ||
"B" d2 dd d2 B2 | g2 gg f2 e2 | d2 dd e2 dd | d2 cB A2 GA |  B2 BB A2  A
2 |
 GABG EF G2 |  D2 GB d2 cB | A2 AA G4 ||

